X: 59
T:Shawbury Park
M:4/4
L:1/8
K:Am
P:A
|:"Am"c3B ABcA|"E"B2E2E2A2|"E"^G2A2"Am"E2c2|"Dm"BABc "E"BcdB|
"Am"c3B ABcA|"E"B2E2E2A2|"Dm"^G2A2 "E"cBcG|"Am"A8:|
P:B
|:"C"G3G G^FGA|G2E2E2E2|"F"A3A "G"BABG|"C"c6 de|"Dm"fedc "E"B2E2|
"Dm"dcBA "E"^G2e2|"Dm"fedc "E7"dcBA|"Am"A6:|

